!!!!SEGMENT: pl-wtm--r-1229-2-m_moniuszko-stanislaw--kukulka.krn
!!!cenid: 18xx:2853
!!!COM: Moniuszko, Stanisław
!!!COM-rismid: pe30008351
!!!CDT: 1819/05/05-1872/06/04
!!!CNT: Polish
!!!OTL: Kukułka
!!!PDT:
!!!AGN:
!!!SMS-siglum: PL-Wtm
!!!SMS-shelfmark: R 1229/2/M
!!!SMS-shelfwork: W
!!!SMS-variant:
!!!SMS-altvar:
!!!NIFC-rismid: 1001100456
!!!URL-scan: http://repozytorium.nifc.pl/skany/pl-wtm-nut--r1229m
!!!ONB-nifc: UWAGA: obsada: Coro S, Coro A, Coro T, Coro B, pf
!!!OMD: Non troppo lento.
**kern	**kern	**dynam	**kern	**text	**kern	**text	**text	**dynam
*part3	*part3	*part3	*part2	*part2	*part1	*part1	*part1	*part1
*staff4	*staff3	*	*staff2	*staff2	*staff1	*staff1	*staff1	*
*Iempty	*Iforte	*	*Itenor/bass	*	*Iempty	*	*	*
*	*I"[Fortepian]	*	*I"Tero / Bas	*	*I"Sapro / Alt	*	*	*
*clefF4	*clefG2	*	*clefF4	*	*clefG2	*	*	*
*>[A,A1,A,A1,A,A2]	*>[A,A1,A,A1,A,A2]	*	*>[A,A1,A,A1,A,A2]	*	*>[A,A1,A,A1,A,A2]	*	*	*
*>A	*>A	*	*>A	*	*>A	*	*	*
*k[f#c#g#d#]	*k[f#c#g#d#]	*	*k[f#c#g#d#]	*	*k[f#c#g#d#]	*	*	*
*E:	*E:	*	*E:	*	*E:	*	*	*
*M6/8	*M6/8	*	*M6/8	*	*M6/8	*	*	*
*2\right	*2\right	*	*2\right	*	*2\right	*	*	*
=1	=1	=1	=1	=1	=1	=1	=1	=1
*^	*	*	*	*	*	*	*	*
!	!	!	!	!	!	!LO:TX:t=P:problem:nazwy głosów chóralnych zgodnie ze stroną 2 (karta 00004)	!	!	!
!	!	!	!	!	!	!LO:TX:t=P:problem:2\right:global	!	!	!
(<4.E/	2.EE\	(8g#/L 8b	p	2.r	.	2.r	.	.	.
.	.	8e/	.	.	.	.	.	.	.
.	.	8B/J)	.	.	.	.	.	.	.
8D#/L	.	(8f#/L	.	.	.	.	.	.	.
8F#/	.	8d#/	.	.	.	.	.	.	.
8BB/J)	.	8B/J)	.	.	.	.	.	.	.
!LO:TX:t=[segno]	!LO:TX:t=[segno]	!	!	!LO:TX:t=[segno]	!	!LO:TX:t=[segno]	!	!	!
=2!|:	=2!|:	=2!|:	=2!|:	=2!|:	=2!|:	=2!|:	=2!|:	=2!|:	=2!|:
(<4.E/	2.EE\	(8g#/L 8b	.	4r	.	4r	.	.	.
.	.	8e/	.	.	.	.	.	.	.
.	.	8B/J)	.	8r	.	8r	.	.	.
!	!	!	!	!	!	!	!	!	!LO:DY:b
8D#/L	.	(8f#/L 8b	.	4r	.	4r	.	.	p
8F#/	.	8d#/	.	.	.	.	.	.	.
!	!	!	!	!	!	!LO:TX:t=P:problem:tekst 1. zwrotki zapisany ponad systemem	!	!	!
8BB/J)	.	8B/J)	.	8BB\ 8B	3)_Ty	8d#/ 8b	1)_Dą-	2)_Spo-	.
=3	=3	=3	=3	=3	=3	=3	=3	=3	=3
(4.E/	2.EE\	(8g#/L	.	4.E\ 4.B	kie-	(>4e/ 4g#	-bro-	-czę-	.
.	.	8e/	.	.	.	.	.	.	.
.	.	8B/J)	.	.	.	8f#/) 8a	.	.	.
4.BB/)	.	(8g#/L 8b	.	4E\ 4e	-dyś	4g#/ 4b	-wą	-ła	.
.	.	8e/	.	.	.	.	.	.	.
.	.	8B/J)	.	8E\ 8B	ma-	8g#/ 8cc#	szła	w_do-	.
=4	=4	=4	=4	=4	=4	=4	=4	=4	=4
(4.E/	2.EE\	(8g#/L	.	4.E\ 4.B	-len-	(>4e/ 4g#	mat-	-li-	.
.	.	8e/	.	.	.	.	.	.	.
.	.	8B/J)	.	.	.	8f#/) 8a	.	.	.
4.BB/)	.	(8g#/L 8b	.	4E\ 4e	-ki,	4g#/ 4b	-ka	-nie,	.
.	.	8e/	.	.	.	.	.	.	.
.	.	8B/J)	.	8E\ 8B	tak	8g#/ 8cc#	i	dać	.
*v	*v	*	*	*	*	*	*	*	*
=5	=5	=5	=5	=5	=5	=5	=5	=5
2.BB/	(8f#/L 8b	.	8BB\ 8B	za-	8d#/ 8b	nio-	pier-	.
.	8d#/	.	8BB\ 8B	-czniesz	8d#/ 8a	-sła	-si	.
.	8B/J)	.	8B\	pio-	8d#/ 8g#	gdzie	dzie-	.
.	(8f#/L 8b	.	8A\ 8B	-sen-	8d#/ 8f#	chat-	-ci-	.
.	8d#/	.	8G#\ 8B	-ki	8d#/ 8g#	-ko,	-nie,	.
.	8B/J)	.	8F#\ 8B	twej	8d#/ 8a	we-	dziś	.
=6	=6	=6	=6	=6	=6	=6	=6	=6
2.E\	(8g#/L 8b	.	4.G#\ 4.B	mat-	4.e/ 4.b	-so-	wcześ-	.
.	8e/	.	.	.	.	.	.	.
.	8B/J)	.	.	.	.	.	.	.
.	(8g#/L	.	8E\ 8B	-ce,	8e/ 8g#	-ło,	-niej,	.
.	8e/	.	8r	.	8r	.	.	.
.	8B/J)	.	8E\ 8B	i	8e/ 8g#	Chrztem	i	.
=7	=7	=7	=7	=7	=7	=7	=7	=7
*^	*	*	*^	*	*	*	*	*
!!LO:LB:g=original
4.E/	2.EE\	(8g#/L	.	(<8e/L	4.E\	bę-	(>4e/ 4g#	świę-	stru-	.
.	.	8e/	.	(<8d#/)	.	.	.	.	.	.
.	.	8B/J)	.	8c#/J)	.	.	8f#/) 8a	.	.	.
4.BB/	.	(8g#/L 8b	.	4B/	4E\	-dziesz	(>4g#/ 4b	-tym	-gi	.
.	.	8e/	.	.	.	.	.	.	.	.
.	.	8B/J)	.	8B/	8E\	tak	8g#/) 8cc#	ob-	mru-	.
=8	=8	=8	=8	=8	=8	=8	=8	=8	=8	=8
!	!	!	!	!	!LO:N:vis=4	!	!	!	!	!
4.E/	2.EE\	(8g#/L	.	(<8e/L	4.E\	hu-	(>4e/ 4g#	-my-	-cza-	.
.	.	8e/	.	(<8d#/)	.	.	.	.	.	.
.	.	8B/J)	.	8c#/J)	.	.	8f#/) 8a	.	.	.
4.BB/	.	(8g#/L 8b	.	4B/	4E\	-kać,	(>4g#/ 4b	-te,	-ły,	.
.	.	8e/	.	.	.	.	.	.	.	.
.	.	8B/J)	.	8B/	8E\	ja	8g#/) 8cc#	Dzie-	i	.
*v	*v	*	*	*v	*v	*	*	*	*	*
=9	=9	=9	=9	=9	=9	=9	=9	=9
2.BB/	(8f#/L 8b	.	8BB\ 8B	bę-	8f#/ 8dd#	-cią-	pta-	.
.	8d#/	.	8BB\ 8B	-dę	8e/ 8cc#	-tko	-szki	.
.	8B/J)	.	8BB\ 8B	cię	8d#/ 8b	spo-	śpie-	.
.	(8f#/L 8b	.	8BB\ 8c#	szu-	8d#/ 8a	-wi-	-wa-	.
.	8d#/	.	8BB\ 8B	-kać	8d#/ 8g#	-te	-ły	.
.	8B/J)	.	8BB\ 8A	po	8d#/ 8f#	z_ko-	swe	.
=10	=10	=10	=10	=10	=10	=10	=10	=10
2.EE/ 2.E	(8g#/L 8b	.	4.E\ 4.B	chat-	4.e/ 4.g#	-ścio-	pie-	.
.	8e/	.	.	.	.	.	.	.
.	8B/J)	.	.	.	.	.	.	.
.	(8g#/L 8b	.	4.E\ 4.B	-ce.	4.g#\ 4.b	-ła.	-śni;	.
.	8e/	.	.	.	.	.	.	.
.	8B/J)	.	.	.	.	.	.	.
=11	=11	=11	=11	=11	=11	=11	=11	=11
!	!	!	!	!	!	!	!	!LO:DY:b
4.AA\ 4.A	(8a/L 8cc#	f	4AA\ 4c#	Znaj-	4a/ 4ee	Śpij	A	f
.	8e/	.	.	.	.	.	.	.
.	8c#/J)	.	8C#\ 8A	-dę	8e/ 8cc#	a-	naj-	.
4.E\	(8g#/L 8b	.	4E\ 4G#	a	4e/ 4b	-nioł-	-bar-	.
.	8e/	.	.	.	.	.	.	.
.	8B/J)	.	8E\ 8B	ty	8e/ 8g#	-ku,	-dziej	.
=12	=12	=12	=12	=12	=12	=12	=12	=12
4.AA\ 4.A	(8a/L 8cc#	p	4AA\ 4c#	znów	4a/ 4ee	mo-	mi-	p
.	8e/	.	.	.	.	.	.	.
.	8c#/J)	.	8C#\ 8A	się	8e/ 8cc#	-je	-łym	.
4.E\	(8g#/L 8b	.	4E\ 4G#	cho-	4e/ 4b	dzie-	śpie-	.
.	8e/	.	.	.	.	.	.	.
.	8B/J)	.	8E'\ 8B	-wać,	8e/ 8g#	-cię,	-wem	.
=13	=13	=13	=13	=13	=13	=13	=13	=13
*	*	*	*^	*	*^	*	*	*
!!LO:LB:g=original
2.BB/	(8f#/L 8b	.	8c#/L	4BB\	ja	8a/L	4d#\	mo-	wo-	.
.	8d#/	.	8B/J	.	.	8g#/J	.	.	.	.
.	8B/J)	.	8A/	8BB\	a-	8f#/	8d#\	-je	-ła,	.
.	(8f#/L 8b	.	8A/L	4BB\	-nioł-	8cc#/L	4d#\	szczę-	ku-	.
.	8d#/	.	8G#/J	.	.	8b/J	.	.	.	.
.	8B/J)	.	8F#/	8BB\	-ka	8a/	8d#\	-ście,	-ka,	.
=14	=14	=14	=14	=14	=14	=14	=14	=14	=14	=14
2.E\	(8g#/L 8b	.	4E/	4E\	znów	4g#/	4e\	mo-	nad	.
.	8e/	.	.	.	.	.	.	.	.	.
.	8B/J)	.	8F#/	8E\	ca-	8a/	8e\	-je	swem	.
.	(8g#/L 8b	.	8G#/	8E\	-ło-	8b/	8e\	ży-	drze-	.
.	8e/	.	8A/	8E\	-wać,	8cc#/	8e\	-cie,	-wem	.
.	8B/J)	.	8B/	8E\	tak	8dd#/	8a\	mój	ku-	.
=15	=15	=15	=15	=15	=15	=15	=15	=15	=15	=15
2.EE\ 2.E	(8a/L 8cc#	.	(4.c#/	2.E\	bę-	2.ee/	(4.a\	Syn-	-kuł-	.
.	8e/	.	.	.	.	.	.	.	.	.
.	8c#/J)	.	.	.	.	.	.	.	.	.
.	(8g#/L 8b	.	4.B/)	.	.	.	4.g#\)	.	.	.
.	8e/	.	.	.	.	.	.	.	.	.
.	8B/J)	.	.	.	.	.	.	.	.	.
=16	=16	=16	=16	=16	=16	=16	=16	=16	=16	=16
4.D#\	(8f#/L 8b	.	4B/	4D#\	-dę,	4b/	4f#\	-ku,	-ka,	.
.	8d#/	.	.	.	.	.	.	.	.	.
.	8B/J)	.	8r	8ryy	.	8r	8ryy	.	.	.
4.BB/	(8d#/L 8a 8b	.	4.d#/	4.BB\	tak	4.b/	4.a\	mój	ku-	.
.	8f#/	.	.	.	.	.	.	.	.	.
.	8B/J)	.	.	.	.	.	.	.	.	.
=17	=17	=17	=17	=17	=17	=17	=17	=17	=17	=17
(<4.E\	(8g#/L 8b	.	(4.e/	(4.E\	bę-	[2.b/	(4.g#\	Syn-	-kuł-	.
.	8e/	.	.	.	.	.	.	.	.	.
.	8B/J)	.	.	.	.	.	.	.	.	.
4.BB/)	(8f#/L 8b	.	4.d#/	4.B\)	.	.	4.f#\	.	.	.
.	8d#/	.	.	.	.	.	.	.	.	.
.	8B/J)	.	.	.	.	.	.	.	.	.
=18	=18	=18	=18	=18	=18	=18	=18	=18	=18	=18
(<4.E\	(8g#/L 8b	.	(4.e/)	(4.E\	.	2.b/]	(4.g#\)	.	.	.
.	8e/	.	.	.	.	.	.	.	.	.
.	8B/J)	.	.	.	.	.	.	.	.	.
4.BB/)	(8f#/L 8b	.	4.B/)	4.B\)	.	.	4.d#\)	.	.	.
.	8d#/	.	.	.	.	.	.	.	.	.
.	8B/J)	.	.	.	.	.	.	.	.	.
=19	=19	=19	=19	=19	=19	=19	=19	=19	=19	=19
!!LO:LB:g=original
*>A1	*>A1	*	*>A1	*	*>A1	*	*	*	*	*
!LO:TX:t=1a 2a volta	!	!	!	!	!	!	!	!	!	!
4.EE\ 4.E	(8g#/L 8b	.	4G#/	4E\	.	4e/	4e\	-ku	-ka	.
.	8e/	.	.	.	.	.	.	.	.	.
.	8B/J)	.	8r	8ryy	.	8r	8ryy	.	.	.
(8D#/L	(8f#/L 8b	.	4r	4ryy	.	4r	4ryy	.	.	.
8F#/	8d#/	.	.	.	.	.	.	.	.	.
8BB/J)	8B/J)	.	8r	8ryy	.	8r	8ryy	.	.	.
*	*	*	*v	*v	*	*	*	*	*	*
=20:|!	=20:|!	=20:|!	=20:|!	=20:|!	=20:|!	=20:|!	=20:|!	=20:|!	=20:|!
*>A2	*>A2	*	*>A2	*	*>A2	*	*	*	*
!LO:TX:t=2a Volta	!	!	!	!	!	!	!	!	!
4EE/ 4E	(8g#/L 8b	.	[2.E\ [2.G#	-dę.	[2.e/	[2.e\	.	.	.
.	8e/	.	.	.	.	.	.	.	.
8r	8B/J	.	.	.	.	.	.	.	.
4r	8e/L	.	.	.	.	.	.	.	.
.	8g#/	.	.	.	.	.	.	.	.
8r	8b/J)	.	.	.	.	.	.	.	.
=21	=21	=21	=21	=21	=21	=21	=21	=21	=21
*	*	*	*^	*	*	*	*	*	*
2.r;	2.ee;\ 2.gg#	.	2.G#/]	2.E\]	.	2.e;/]	2.e\]	.	.	.
*	*	*	*v	*v	*	*	*	*	*	*
*	*	*	*	*	*v	*v	*	*	*
==	==	==	==	==	==	==	==	==
*-	*-	*-	*-	*-	*-	*-	*-	*-
!!!system-decoration: {(s1,s2)}{(s3,s4)}
!!!RDF**kern: > = above
!!!RDF**kern: < = below
!!!ENC: Kamil Watkowski
!!!END: 2021-08-09
